balaganeshbaskar/manipulator_ws/traj_20260110_114638.csv
Index,J1,J2,J3,J4,J5,V1,V2,V3,V4,V5
0,-83.23,0.00,0.00,0.00,0.00,0.00,0.00,0.00,0.00,0.00
1,-82.95,0.00,0.00,0.00,0.00,5.72,0.00,0.00,0.00,0.00
2,-82.37,0.00,0.00,0.00,0.00,5.73,0.00,0.00,0.00,0.00
3,-81.80,0.00,0.00,0.00,0.00,5.73,0.00,0.00,0.00,0.00
4,-81.23,0.00,0.00,0.00,0.00,5.73,0.00,0.00,0.00,0.00
5,-80.65,0.00,0.00,0.00,0.00,5.73,0.00,0.00,0.00,0.00
6,-80.08,0.00,0.00,0.00,0.00,5.73,0.00,0.00,0.00,0.00
7,-79.51,0.00,0.00,0.00,0.00,5.73,0.00,0.00,0.00,0.00
8,-78.93,0.00,0.00,0.00,0.00,5.73,0.00,0.00,0.00,0.00
9,-78.36,0.00,0.00,0.00,0.00,5.73,0.00,0.00,0.00,0.00
10,-77.79,0.00,0.00,0.00,0.00,5.73,0.00,0.00,0.00,0.00
11,-77.22,0.00,0.00,0.00,0.00,5.73,0.00,0.00,0.00,0.00
12,-76.64,0.00,0.00,0.00,0.00,5.73,0.00,0.00,0.00,0.00
13,-76.07,0.00,0.00,0.00,0.00,5.73,0.00,0.00,0.00,0.00
14,-75.50,0.00,0.00,0.00,0.00,5.73,0.00,0.00,0.00,0.00
15,-74.92,0.00,0.00,0.00,0.00,5.73,0.00,0.00,0.00,0.00
16,-74.35,0.00,0.00,0.00,0.00,5.73,0.00,0.00,0.00,0.00
17,-73.78,0.00,0.00,0.00,0.00,5.73,0.00,0.00,0.00,0.00
18,-73.21,0.00,0.00,0.00,0.00,5.73,0.00,0.00,0.00,0.00
19,-72.63,0.00,0.00,0.00,0.00,5.73,0.00,0.00,0.00,0.00
20,-72.06,0.00,0.00,0.00,0.00,5.73,0.00,0.00,0.00,0.00
21,-71.49,0.00,0.00,0.00,0.00,5.73,0.00,0.00,0.00,0.00
22,-70.91,0.00,0.00,0.00,0.00,5.73,0.00,0.00,0.00,0.00
23,-70.34,0.00,0.00,0.00,0.00,5.73,0.00,0.00,0.00,0.00
24,-69.77,0.00,0.00,0.00,0.00,5.73,0.00,0.00,0.00,0.00
25,-69.19,0.00,0.00,0.00,0.00,5.73,0.00,0.00,0.00,0.00
26,-68.62,0.00,0.00,0.00,0.00,5.73,0.00,0.00,0.00,0.00
27,-68.05,0.00,0.00,0.00,0.00,5.73,0.00,0.00,0.00,0.00
28,-67.48,0.00,0.00,0.00,0.00,5.73,0.00,0.00,0.00,0.00
29,-66.90,0.00,0.00,0.00,0.00,5.73,0.00,0.00,0.00,0.00
30,-66.33,0.00,0.00,0.00,0.00,5.73,0.00,0.00,0.00,0.00
31,-65.76,0.00,0.00,0.00,0.00,5.73,0.00,0.00,0.00,0.00
32,-65.18,0.00,0.00,0.00,0.00,5.73,0.00,0.00,0.00,0.00
33,-64.61,0.00,0.00,0.00,0.00,5.73,0.00,0.00,0.00,0.00
34,-64.04,0.00,0.00,0.00,0.00,5.73,0.00,0.00,0.00,0.00
35,-63.46,0.00,0.00,0.00,0.00,5.73,0.00,0.00,0.00,0.00
36,-62.89,0.00,0.00,0.00,0.00,5.73,0.00,0.00,0.00,0.00
37,-62.32,0.00,0.00,0.00,0.00,5.73,0.00,0.00,0.00,0.00
38,-61.75,0.00,0.00,0.00,0.00,5.73,0.00,0.00,0.00,0.00
39,-61.17,0.00,0.00,0.00,0.00,5.73,0.00,0.00,0.00,0.00
40,-60.60,0.00,0.00,0.00,0.00,5.73,0.00,0.00,0.00,0.00
41,-60.03,0.00,0.00,0.00,0.00,5.73,0.00,0.00,0.00,0.00
42,-59.45,0.00,0.00,0.00,0.00,5.73,0.00,0.00,0.00,0.00
43,-58.88,0.00,0.00,0.00,0.00,5.73,0.00,0.00,0.00,0.00
44,-58.31,0.00,0.00,0.00,0.00,5.73,0.00,0.00,0.00,0.00
45,-57.74,0.00,0.00,0.00,0.00,5.73,0.00,0.00,0.00,0.00
46,-57.16,0.00,0.00,0.00,0.00,5.73,0.00,0.00,0.00,0.00
47,-56.59,0.00,0.00,0.00,0.00,5.73,0.00,0.00,0.00,0.00
48,-56.02,0.00,0.00,0.00,0.00,5.73,0.00,0.00,0.00,0.00
49,-55.44,0.00,0.00,0.00,0.00,5.73,0.00,0.00,0.00,0.00
50,-54.87,0.00,0.00,0.00,0.00,5.73,0.00,0.00,0.00,0.00
51,-54.30,0.00,0.00,0.00,0.00,5.73,0.00,0.00,0.00,0.00
52,-53.72,0.00,0.00,0.00,0.00,5.73,0.00,0.00,0.00,0.00
53,-53.15,0.00,0.00,0.00,0.00,5.73,0.00,0.00,0.00,0.00
54,-52.58,0.00,0.00,0.00,0.00,5.73,0.00,0.00,0.00,0.00
55,-52.01,0.00,0.00,0.00,0.00,5.73,0.00,0.00,0.00,0.00
56,-51.43,0.00,0.00,0.00,0.00,5.73,0.00,0.00,0.00,0.00
57,-50.86,0.00,0.00,0.00,0.00,5.73,0.00,0.00,0.00,0.00
58,-50.29,0.00,0.00,0.00,0.00,5.73,0.00,0.00,0.00,0.00
59,-49.71,0.00,0.00,0.00,0.00,5.73,0.00,0.00,0.00,0.00
60,-49.14,0.00,0.00,0.00,0.00,5.73,0.00,0.00,0.00,0.00
61,-48.57,0.00,0.00,0.00,0.00,5.73,0.00,0.00,0.00,0.00
62,-48.00,0.00,0.00,0.00,0.00,5.73,0.00,0.00,0.00,0.00
63,-47.42,0.00,0.00,0.00,0.00,5.73,0.00,0.00,0.00,0.00
64,-46.85,0.00,0.00,0.00,0.00,5.73,0.00,0.00,0.00,0.00
65,-46.28,0.00,0.00,0.00,0.00,5.73,0.00,0.00,0.00,0.00
66,-45.70,0.00,0.00,0.00,0.00,5.73,0.00,0.00,0.00,0.00
67,-45.13,0.00,0.00,0.00,0.00,5.73,0.00,0.00,0.00,0.00
68,-44.56,0.00,0.00,0.00,0.00,5.73,0.00,0.00,0.00,0.00
69,-43.98,0.00,0.00,0.00,0.00,5.73,0.00,0.00,0.00,0.00
70,-43.41,0.00,0.00,0.00,0.00,5.73,0.00,0.00,0.00,0.00
71,-42.84,0.00,0.00,0.00,0.00,5.73,0.00,0.00,0.00,0.00
72,-42.27,0.00,0.00,0.00,0.00,5.73,0.00,0.00,0.00,0.00
73,-41.69,0.00,0.00,0.00,0.00,5.73,0.00,0.00,0.00,0.00
74,-41.12,0.00,0.00,0.00,0.00,5.73,0.00,0.00,0.00,0.00
75,-40.55,0.00,0.00,0.00,0.00,5.73,0.00,0.00,0.00,0.00
76,-39.97,0.00,0.00,0.00,0.00,5.73,0.00,0.00,0.00,0.00
77,-39.40,0.00,0.00,0.00,0.00,5.73,0.00,0.00,0.00,0.00
78,-38.83,0.00,0.00,0.00,0.00,5.73,0.00,0.00,0.00,0.00
79,-38.25,0.00,0.00,0.00,0.00,5.73,0.00,0.00,0.00,0.00
80,-37.68,0.00,0.00,0.00,0.00,5.73,0.00,0.00,0.00,0.00
81,-37.11,0.00,0.00,0.00,0.00,5.73,0.00,0.00,0.00,0.00
82,-36.54,0.00,0.00,0.00,0.00,5.73,0.00,0.00,0.00,0.00
83,-35.96,0.00,0.00,0.00,0.00,5.73,0.00,0.00,0.00,0.00
84,-35.39,0.00,0.00,0.00,0.00,5.73,0.00,0.00,0.00,0.00
85,-34.82,0.00,0.00,0.00,0.00,5.73,0.00,0.00,0.00,0.00
86,-34.24,0.00,0.00,0.00,0.00,5.73,0.00,0.00,0.00,0.00
87,-33.67,0.00,0.00,0.00,0.00,5.73,0.00,0.00,0.00,0.00
88,-33.10,0.00,0.00,0.00,0.00,5.73,0.00,0.00,0.00,0.00
89,-32.53,0.00,0.00,0.00,0.00,5.73,0.00,0.00,0.00,0.00
90,-31.95,0.00,0.00,0.00,0.00,5.73,0.00,0.00,0.00,0.00
91,-31.38,0.00,0.00,0.00,0.00,5.73,0.00,0.00,0.00,0.00
92,-30.81,0.00,0.00,0.00,0.00,5.73,0.00,0.00,0.00,0.00
93,-30.23,0.00,0.00,0.00,0.00,5.73,0.00,0.00,0.00,0.00
94,-29.66,0.00,0.00,0.00,0.00,5.73,0.00,0.00,0.00,0.00
95,-29.09,0.00,0.00,0.00,0.00,5.73,0.00,0.00,0.00,0.00
96,-28.51,0.00,0.00,0.00,0.00,5.73,0.00,0.00,0.00,0.00
97,-27.94,0.00,0.00,0.00,0.00,5.73,0.00,0.00,0.00,0.00
98,-27.37,0.00,0.00,0.00,0.00,5.73,0.00,0.00,0.00,0.00
99,-26.80,0.00,0.00,0.00,0.00,5.73,0.00,0.00,0.00,0.00
100,-26.22,0.00,0.00,0.00,0.00,5.73,0.00,0.00,0.00,0.00
101,-25.65,0.00,0.00,0.00,0.00,5.73,0.00,0.00,0.00,0.00
102,-25.08,0.00,0.00,0.00,0.00,5.73,0.00,0.00,0.00,0.00
103,-24.50,0.00,0.00,0.00,0.00,5.73,0.00,0.00,0.00,0.00
104,-23.93,0.00,0.00,0.00,0.00,5.73,0.00,0.00,0.00,0.00
105,-23.36,0.00,0.00,0.00,0.00,5.73,0.00,0.00,0.00,0.00
106,-22.78,0.00,0.00,0.00,0.00,5.73,0.00,0.00,0.00,0.00
107,-22.21,0.00,0.00,0.00,0.00,5.73,0.00,0.00,0.00,0.00
108,-21.64,0.00,0.00,0.00,0.00,5.73,0.00,0.00,0.00,0.00
109,-21.07,0.00,0.00,0.00,0.00,5.73,0.00,0.00,0.00,0.00
110,-20.49,0.00,0.00,0.00,0.00,5.73,0.00,0.00,0.00,0.00
111,-19.92,0.00,0.00,0.00,0.00,5.73,0.00,0.00,0.00,0.00
112,-19.35,0.00,0.00,0.00,0.00,5.73,0.00,0.00,0.00,0.00
113,-18.77,0.00,0.00,0.00,0.00,5.73,0.00,0.00,0.00,0.00
114,-18.20,0.00,0.00,0.00,0.00,5.73,0.00,0.00,0.00,0.00
115,-17.63,0.00,0.00,0.00,0.00,5.73,0.00,0.00,0.00,0.00
116,-17.06,0.00,0.00,0.00,0.00,5.73,0.00,0.00,0.00,0.00
117,-16.48,0.00,0.00,0.00,0.00,5.73,0.00,0.00,0.00,0.00
118,-15.91,0.00,0.00,0.00,0.00,5.73,0.00,0.00,0.00,0.00
119,-15.34,0.00,0.00,0.00,0.00,5.73,0.00,0.00,0.00,0.00
120,-14.76,0.00,0.00,0.00,0.00,5.73,0.00,0.00,0.00,0.00
121,-14.19,0.00,0.00,0.00,0.00,5.73,0.00,0.00,0.00,0.00
122,-13.62,0.00,0.00,0.00,0.00,5.73,0.00,0.00,0.00,0.00
123,-13.04,0.00,0.00,0.00,0.00,5.73,0.00,0.00,0.00,0.00
124,-12.47,0.00,0.00,0.00,0.00,5.73,0.00,0.00,0.00,0.00
125,-11.90,0.00,0.00,0.00,0.00,5.73,0.00,0.00,0.00,0.00
126,-11.33,0.00,0.00,0.00,0.00,5.73,0.00,0.00,0.00,0.00
127,-10.75,0.00,0.00,0.00,0.00,5.73,0.00,0.00,0.00,0.00
128,-10.18,0.00,0.00,0.00,0.00,5.73,0.00,0.00,0.00,0.00
129,-9.61,0.00,0.00,0.00,0.00,5.73,0.00,0.00,0.00,0.00
130,-9.03,0.00,0.00,0.00,0.00,5.73,0.00,0.00,0.00,0.00
131,-8.46,0.00,0.00,0.00,0.00,5.73,0.00,0.00,0.00,0.00
132,-7.89,0.00,0.00,0.00,0.00,5.73,0.00,0.00,0.00,0.00
133,-7.32,0.00,0.00,0.00,0.00,5.73,0.00,0.00,0.00,0.00
134,-6.74,0.00,0.00,0.00,0.00,5.73,0.00,0.00,0.00,0.00
135,-6.17,0.00,0.00,0.00,0.00,5.73,0.00,0.00,0.00,0.00
136,-5.60,0.00,0.00,0.00,0.00,5.73,0.00,0.00,0.00,0.00
137,-5.02,0.00,0.00,0.00,0.00,5.73,0.00,0.00,0.00,0.00
138,-4.45,0.00,0.00,0.00,0.00,5.73,0.00,0.00,0.00,0.00
139,-3.88,0.00,0.00,0.00,0.00,5.73,0.00,0.00,0.00,0.00
140,-3.30,0.00,0.00,0.00,0.00,5.73,0.00,0.00,0.00,0.00
141,-2.73,0.00,0.00,0.00,0.00,5.73,0.00,0.00,0.00,0.00
142,-2.16,0.00,0.00,0.00,0.00,5.73,0.00,0.00,0.00,0.00
143,-1.59,0.00,0.00,0.00,0.00,5.73,0.00,0.00,0.00,0.00
144,-1.01,0.00,0.00,0.00,0.00,5.73,0.00,0.00,0.00,0.00
145,-0.44,0.00,0.00,0.00,0.00,5.73,0.00,0.00,0.00,0.00
146,-0.02,0.00,0.00,0.00,0.00,1.53,0.00,0.00,0.00,0.00
147,-0.00,0.00,0.00,0.00,0.00,0.00,0.00,0.00,0.00,0.00
