balaganeshbaskar/manipulator_ws/traj_20251218_173543.csv
Index,J1,J2,J3,J4,J5,V1,V2,V3,V4,V5
0,153.19,0.00,0.00,0.00,0.00,-0.00,0.00,-0.00,0.00,-0.00
1,152.93,0.27,-0.10,0.10,-0.29,-5.33,5.43,-2.01,1.98,-5.72
2,152.39,0.82,-0.30,0.30,-0.86,-5.34,5.44,-2.01,1.98,-5.73
3,151.86,1.36,-0.50,0.50,-1.43,-5.34,5.44,-2.01,1.98,-5.73
4,151.32,1.90,-0.70,0.69,-2.01,-5.34,5.44,-2.01,1.98,-5.73
5,150.79,2.45,-0.91,0.89,-2.58,-5.34,5.44,-2.01,1.98,-5.73
6,150.26,2.99,-1.11,1.09,-3.15,-5.34,5.44,-2.01,1.98,-5.73
7,149.72,3.54,-1.31,1.29,-3.72,-5.34,5.44,-2.01,1.98,-5.73
8,149.19,4.08,-1.51,1.49,-4.30,-5.34,5.44,-2.01,1.98,-5.73
9,148.65,4.62,-1.71,1.68,-4.87,-5.34,5.44,-2.01,1.98,-5.73
10,148.12,5.17,-1.91,1.88,-5.44,-5.34,5.44,-2.01,1.98,-5.73
11,147.59,5.71,-2.11,2.08,-6.02,-5.34,5.44,-2.01,1.98,-5.73
12,147.05,6.26,-2.32,2.28,-6.59,-5.34,5.44,-2.01,1.98,-5.73
13,146.52,6.80,-2.52,2.48,-7.16,-5.34,5.44,-2.01,1.98,-5.73
14,145.98,7.34,-2.72,2.67,-7.73,-5.34,5.44,-2.01,1.98,-5.73
15,145.45,7.89,-2.92,2.87,-8.31,-5.34,5.44,-2.01,1.98,-5.73
16,144.92,8.43,-3.12,3.07,-8.88,-5.34,5.44,-2.01,1.98,-5.73
17,144.38,8.98,-3.32,3.27,-9.45,-5.34,5.44,-2.01,1.98,-5.73
18,143.85,9.52,-3.52,3.47,-10.03,-5.34,5.44,-2.01,1.98,-5.73
19,143.31,10.06,-3.73,3.67,-10.60,-5.34,5.44,-2.01,1.98,-5.73
20,142.78,10.61,-3.93,3.86,-11.17,-5.34,5.44,-2.01,1.98,-5.73
21,142.24,11.15,-4.13,4.06,-11.75,-5.34,5.44,-2.01,1.98,-5.73
22,141.71,11.70,-4.33,4.26,-12.32,-5.34,5.44,-2.01,1.98,-5.73
23,141.18,12.24,-4.53,4.46,-12.89,-5.34,5.44,-2.01,1.98,-5.73
24,140.64,12.78,-4.73,4.66,-13.46,-5.34,5.44,-2.01,1.98,-5.73
25,140.11,13.33,-4.93,4.85,-14.04,-5.34,5.44,-2.01,1.98,-5.73
26,139.57,13.87,-5.14,5.05,-14.61,-5.34,5.44,-2.01,1.98,-5.73
27,139.04,14.41,-5.34,5.25,-15.18,-5.34,5.44,-2.01,1.98,-5.73
28,138.51,14.96,-5.54,5.45,-15.76,-5.34,5.44,-2.01,1.98,-5.73
29,137.97,15.50,-5.74,5.65,-16.33,-5.34,5.44,-2.01,1.98,-5.73
30,137.44,16.05,-5.94,5.84,-16.90,-5.34,5.44,-2.01,1.98,-5.73
31,136.90,16.59,-6.14,6.04,-17.48,-5.34,5.44,-2.01,1.98,-5.73
32,136.37,17.13,-6.34,6.24,-18.05,-5.34,5.44,-2.01,1.98,-5.73
33,135.84,17.68,-6.55,6.44,-18.62,-5.34,5.44,-2.01,1.98,-5.73
34,135.30,18.22,-6.75,6.64,-19.19,-5.34,5.44,-2.01,1.98,-5.73
35,134.77,18.77,-6.95,6.83,-19.77,-5.34,5.44,-2.01,1.98,-5.73
36,134.23,19.31,-7.15,7.03,-20.34,-5.34,5.44,-2.01,1.98,-5.73
37,133.70,19.85,-7.35,7.23,-20.91,-5.34,5.44,-2.01,1.98,-5.73
38,133.17,20.40,-7.55,7.43,-21.49,-5.34,5.44,-2.01,1.98,-5.73
39,132.63,20.94,-7.75,7.63,-22.06,-5.34,5.44,-2.01,1.98,-5.73
40,132.10,21.49,-7.96,7.83,-22.63,-5.34,5.44,-2.01,1.98,-5.73
41,131.56,22.03,-8.16,8.02,-23.20,-5.34,5.44,-2.01,1.98,-5.73
42,131.03,22.57,-8.36,8.22,-23.78,-5.34,5.44,-2.01,1.98,-5.73
43,130.50,23.12,-8.56,8.42,-24.35,-5.34,5.44,-2.01,1.98,-5.73
44,129.96,23.66,-8.76,8.62,-24.92,-5.34,5.44,-2.01,1.98,-5.73
45,129.43,24.21,-8.96,8.82,-25.50,-5.34,5.44,-2.01,1.98,-5.73
46,128.89,24.75,-9.16,9.01,-26.07,-5.34,5.44,-2.01,1.98,-5.73
47,128.36,25.29,-9.37,9.21,-26.64,-5.34,5.44,-2.01,1.98,-5.73
48,127.83,25.84,-9.57,9.41,-27.22,-5.34,5.44,-2.01,1.98,-5.73
49,127.29,26.38,-9.77,9.61,-27.79,-5.34,5.44,-2.01,1.98,-5.73
50,126.76,26.93,-9.97,9.81,-28.36,-5.34,5.44,-2.01,1.98,-5.73
51,126.22,27.47,-10.17,10.00,-28.93,-5.34,5.44,-2.01,1.98,-5.73
52,125.69,28.01,-10.37,10.20,-29.51,-5.34,5.44,-2.01,1.98,-5.73
53,125.15,28.56,-10.57,10.40,-30.08,-5.34,5.44,-2.01,1.98,-5.73
54,124.62,29.10,-10.78,10.60,-30.65,-5.34,5.44,-2.01,1.98,-5.73
55,124.09,29.65,-10.98,10.80,-31.23,-5.34,5.44,-2.01,1.98,-5.73
56,123.55,30.19,-11.18,11.00,-31.80,-5.34,5.44,-2.01,1.98,-5.73
57,123.02,30.73,-11.38,11.19,-32.37,-5.34,5.44,-2.01,1.98,-5.73
58,122.48,31.28,-11.58,11.39,-32.95,-5.34,5.44,-2.01,1.98,-5.73
59,121.95,31.82,-11.78,11.59,-33.52,-5.34,5.44,-2.01,1.98,-5.73
60,121.42,32.37,-11.98,11.79,-34.09,-5.34,5.44,-2.01,1.98,-5.73
61,120.88,32.91,-12.19,11.99,-34.66,-5.34,5.44,-2.01,1.98,-5.73
62,120.35,33.45,-12.39,12.18,-35.24,-5.34,5.44,-2.01,1.98,-5.73
63,119.81,34.00,-12.59,12.38,-35.81,-5.34,5.44,-2.01,1.98,-5.73
64,119.28,34.54,-12.79,12.58,-36.38,-5.34,5.44,-2.01,1.98,-5.73
65,118.75,35.09,-12.99,12.78,-36.96,-5.34,5.44,-2.01,1.98,-5.73
66,118.21,35.63,-13.19,12.98,-37.53,-5.34,5.44,-2.01,1.98,-5.73
67,117.68,36.17,-13.39,13.17,-38.10,-5.34,5.44,-2.01,1.98,-5.73
68,117.14,36.72,-13.60,13.37,-38.67,-5.34,5.44,-2.01,1.98,-5.73
69,116.61,37.26,-13.80,13.57,-39.25,-5.34,5.44,-2.01,1.98,-5.73
70,116.08,37.81,-14.00,13.77,-39.82,-5.34,5.44,-2.01,1.98,-5.73
71,115.54,38.35,-14.20,13.97,-40.39,-5.34,5.44,-2.01,1.98,-5.73
72,115.01,38.89,-14.40,14.17,-40.97,-5.34,5.44,-2.01,1.98,-5.73
73,114.47,39.44,-14.60,14.36,-41.54,-5.34,5.44,-2.01,1.98,-5.73
74,113.94,39.98,-14.80,14.56,-42.11,-5.34,5.44,-2.01,1.98,-5.73
75,113.41,40.53,-15.01,14.76,-42.69,-5.34,5.44,-2.01,1.98,-5.73
76,112.87,41.07,-15.21,14.96,-43.26,-5.34,5.44,-2.01,1.98,-5.73
77,112.34,41.61,-15.41,15.16,-43.83,-5.34,5.44,-2.01,1.98,-5.73
78,111.80,42.16,-15.61,15.35,-44.40,-5.34,5.44,-2.01,1.98,-5.73
79,111.27,42.70,-15.81,15.55,-44.98,-5.34,5.44,-2.01,1.98,-5.73
80,110.74,43.24,-16.01,15.75,-45.55,-5.34,5.44,-2.01,1.98,-5.73
81,110.20,43.79,-16.21,15.95,-46.12,-5.34,5.44,-2.01,1.98,-5.73
82,109.67,44.33,-16.42,16.15,-46.70,-5.34,5.44,-2.01,1.98,-5.73
83,109.13,44.88,-16.62,16.34,-47.27,-5.34,5.44,-2.01,1.98,-5.73
84,108.60,45.42,-16.82,16.54,-47.84,-5.34,5.44,-2.01,1.98,-5.73
85,108.07,45.96,-17.02,16.74,-48.41,-5.34,5.44,-2.01,1.98,-5.73
86,107.53,46.51,-17.22,16.94,-48.99,-5.34,5.44,-2.01,1.98,-5.73
87,107.00,47.05,-17.42,17.14,-49.56,-5.34,5.44,-2.01,1.98,-5.73
88,106.46,47.60,-17.62,17.33,-50.13,-5.34,5.44,-2.01,1.98,-5.73
89,105.93,48.14,-17.83,17.53,-50.71,-5.34,5.44,-2.01,1.98,-5.73
90,105.39,48.68,-18.03,17.73,-51.28,-5.34,5.44,-2.01,1.98,-5.73
91,104.86,49.23,-18.23,17.93,-51.85,-5.34,5.44,-2.01,1.98,-5.73
92,104.33,49.77,-18.43,18.13,-52.43,-5.34,5.44,-2.01,1.98,-5.73
93,103.79,50.32,-18.63,18.33,-53.00,-5.34,5.44,-2.01,1.98,-5.73
94,103.26,50.86,-18.83,18.52,-53.57,-5.34,5.44,-2.01,1.98,-5.73
95,102.72,51.40,-19.03,18.72,-54.14,-5.34,5.44,-2.01,1.98,-5.73
96,102.19,51.95,-19.24,18.92,-54.72,-5.34,5.44,-2.01,1.98,-5.73
97,101.66,52.49,-19.44,19.12,-55.29,-5.34,5.44,-2.01,1.98,-5.73
98,101.12,53.04,-19.64,19.32,-55.86,-5.34,5.44,-2.01,1.98,-5.73
99,100.59,53.58,-19.84,19.51,-56.44,-5.34,5.44,-2.01,1.98,-5.73
100,100.05,54.12,-20.04,19.71,-57.01,-5.34,5.44,-2.01,1.98,-5.73
101,99.52,54.67,-20.24,19.91,-57.58,-5.34,5.44,-2.01,1.98,-5.73
102,98.99,55.21,-20.44,20.11,-58.16,-5.34,5.44,-2.01,1.98,-5.73
103,98.45,55.76,-20.65,20.31,-58.73,-5.34,5.44,-2.01,1.98,-5.73
104,97.92,56.30,-20.85,20.50,-59.30,-5.34,5.44,-2.01,1.98,-5.73
105,97.38,56.84,-21.05,20.70,-59.87,-5.34,5.44,-2.01,1.98,-5.73
106,96.85,57.39,-21.25,20.90,-60.45,-5.34,5.44,-2.01,1.98,-5.73
107,96.32,57.93,-21.45,21.10,-61.02,-5.34,5.44,-2.01,1.98,-5.73
108,95.78,58.48,-21.65,21.30,-61.59,-5.34,5.44,-2.01,1.98,-5.73
109,95.25,59.02,-21.85,21.50,-62.17,-5.34,5.44,-2.01,1.98,-5.73
110,94.71,59.56,-22.06,21.69,-62.74,-5.34,5.44,-2.01,1.98,-5.73
111,94.18,60.11,-22.26,21.89,-63.31,-5.34,5.44,-2.01,1.98,-5.73
112,93.65,60.65,-22.46,22.09,-63.88,-5.34,5.44,-2.01,1.98,-5.73
113,93.11,61.20,-22.66,22.29,-64.46,-5.34,5.44,-2.01,1.98,-5.73
114,92.58,61.74,-22.86,22.49,-65.03,-5.34,5.44,-2.01,1.98,-5.73
115,92.04,62.28,-23.06,22.68,-65.60,-5.34,5.44,-2.01,1.98,-5.73
116,91.51,62.83,-23.26,22.88,-66.18,-5.34,5.44,-2.01,1.98,-5.73
117,90.98,63.37,-23.47,23.08,-66.75,-5.34,5.44,-2.01,1.98,-5.73
118,90.44,63.92,-23.67,23.28,-67.32,-5.34,5.44,-2.01,1.98,-5.73
119,89.91,64.46,-23.87,23.48,-67.90,-5.34,5.44,-2.01,1.98,-5.73
120,89.37,65.00,-24.07,23.67,-68.47,-5.34,5.44,-2.01,1.98,-5.73
121,88.84,65.55,-24.27,23.87,-69.04,-5.34,5.44,-2.01,1.98,-5.73
122,88.30,66.09,-24.47,24.07,-69.61,-5.34,5.44,-2.01,1.98,-5.73
123,87.77,66.64,-24.67,24.27,-70.19,-5.34,5.44,-2.01,1.98,-5.73
124,87.24,67.18,-24.88,24.47,-70.76,-5.34,5.44,-2.01,1.98,-5.73
125,86.70,67.72,-25.08,24.67,-71.33,-5.34,5.44,-2.01,1.98,-5.73
126,86.17,68.27,-25.28,24.86,-71.91,-5.34,5.44,-2.01,1.98,-5.73
127,85.86,68.58,-25.40,24.98,-72.24,-0.46,0.47,-0.17,0.17,-0.50
128,85.86,68.59,-25.40,24.98,-72.24,-0.00,0.00,-0.00,0.00,-0.00
